src/align-center.svg

<svg xmlns="http://www.w3.org/2000/svg" viewBox="0 0 20 20"><path d="M1 1h18v2H1V1zm0 8h18v2H1V9zm0 8h18v2H1v-2zM4 5h12v2H4V5zm0 8h12v2H4v-2z"/></svg>

<?xml version="1.0" encoding="UTF-8" standalone="no"?>
<svg width="20px" height="20px" viewBox="0 0 20 20" version="1.1" xmlns="http://www.w3.org/2000/svg" xmlns:xlink="http://www.w3.org/1999/xlink">
    <!-- Generator: Sketch 3.7.2 (28276) - http://www.bohemiancoding.com/sketch -->
    <title>align-center</title>
    <desc>Created with Sketch.</desc>
    <defs></defs>
    <g id="Page-1" stroke="none" stroke-width="1" fill="none" fill-rule="evenodd">
        <g id="align-center" fill="#000000">
            <path d="M1,1 L19,1 L19,3 L1,3 L1,1 Z M1,9 L19,9 L19,11 L1,11 L1,9 Z M1,17 L19,17 L19,19 L1,19 L1,17 Z M4,5 L16,5 L16,7 L4,7 L4,5 Z M4,13 L16,13 L16,15 L4,15 L4,13 Z" id="Combined-Shape"></path>
        </g>
    </g>
</svg>
